!!!ONB: MCCC : IJH0412_04 : Extracted Monophonic Melody
!!!COM: Haydn, Joseph
!!!OPR: String Quartet in B-flat major
!!!OMV: 4
!!!SCT: Hob.III:67 ; Op.64 No.3
!!!ODT: 1790///
**kern
*thru
*k[b-e-]
*B-:
*clefF
*M2/4
16ee-
16a
=1
8b-
16ff
16a
8b-
16gg
16a
=2
8b-
16aa
16ff
8bb-
8ff[
=3
8ff]
8ee
8ee-
8dd
=4
16cc
16b-
16cc
16dd
8cc
16ee-
16a
=5
8b-
16ff
16a
8b-
16gg
16a
=6
8b-
16aa
16ff
8bb-
8ddd[
=7
8ddd]
4bb-
8ff#[
=8
8ff#]
4gg
16ee-
16cc
=9
8b-
8b-
16cc
16b-
16cc
16dd
=10
4b-
8r
16c
16A
=11
8B-
8d
8f
8f
=12
8.f
16g
8e-
16ee-
16cc
=13
16b-
16a
16cc
16a
16g
16f
16cc
16e-
=14
16d
16f
16b-
16dd
8ff
16c
16A
=15
8B-
8d
8f
8f
=16
8.f
16g
8e-
16gg
16ff
=17
16ee-
16dd
16cc
16b-
16a
16g
16f
16e-
=18
16d
16f
16b-
16dd
8ff
16ee-
16a
=19
8b-
8dd
8ff
16ee-
16a
=20
8b-
8dd
8gg
16ee
16cc
=21
8ff
8aa
8ccc
16gg
16ee
=22
8ff
8aa
8ccc
16ccc
16aa
=23
8bb-
8bb-
8gg
8gg
=24
8ee
8ee
8b-
8b-
=25
8a
8a
8cc
8cc
=26
16ff
16ee
16aa
16gg
16ff
16ee
16dd
16cc
=27
16cc
16b-
16a
16g
16f
16e
16b-
16g
=28
16f
16e
16g
16e
16c
16B-
16g
16B-
=29
16A
16cc
16cc
16cc
16b
16cc
16e-
16cc
=30
16d
16dd
16dd
16dd
16cc#
16dd
16d
16cc
=31
16d
16b-
16b-
16b-
16cc
16b-
16dd
16b-
=32
16dd
16cc
16bb-
16gg
16bb-
16gg
16ee
16b-
=33
16a
16ff
16ee
16ff
16gg
16ff
16aa
16gg
=34
16ff
16ee
16dd
16cc
16b
16a
16g
16f
=35
8e
8gg
8gg
8aa
=36
8bb-
4.r
=37
8r
8ee
8ee
8ff
=38
8gg
8gg
8gg
8aa
=39
4bb-
8r
8bb-
=40
8bb-
8bb-
8bb-
8bb-
=41
4bb-
8r
8bb-
=42
8bb-
8bb-
8bb-
8bb-
=43
4bb-
8r
8bb-
=44
4bb-
8r
8bb-
=45
8bb-
8r
8bb-
8r
=46
8bb-
8r
8bb-
8r
=47
2bb-
=48
2aa-[
=49
2aa-]
=50
2gg
=51
2ff
=52
2ff
=53
8ee
16bb-
16gg
16bb-
16gg
16aa
16ff
=54
16gg
16ee
16ff
16dd
16ee
16cc
16dd
16b
=55
8cc
16bb-
16gg
16bb-
16gg
16aa
16ff
=56
16gg
16ee
16ff
16dd
16ee
16cc
16dd
16b
=57
8cc
16bb-
16gg
16bb-
16gg
16aa
16ff
=58
16gg
16ee
16ff
16dd
16ee
16cc
16dd
16b-
=59
4.a
8b-
=60
8g
16dd
16cc
8cc
8cc
=61
8.cc
16ff
8cc
16b-
16a
=62
8g
16dd
16cc
8cc
8cc
=63
8.cc
16ff
8cc
8b
=64
16cc
16dd
16ee
16ff
8cc
8a
=65
8b-
8g
8a
8g
=66
8f
8f
8e
8e
=67
16f
16c
16A
16c
16f
16a
16g
16e
=68
16a
16f
16b-
16g
8cc
8aa[
=69
8aa]
4ff
8cc#[
=70
8cc#]
4dd
16b-
16g
=71
4.f
16a
16g
=72
16f
16c
16A
16c
16f
16a
16g
16e
=73
16a
16f
16b-
16g
8cc
8aa[
=74
8aa]
4bb
8ccc[
=75
8ccc]
8ccc#
8ddd
16bb-
16gg
=76
4.ff
16gg
16ee
=77
8ff
16aa
16ee
16ff
16cc#
16dd
16a
=78
8b-
8g
8cc
8c
=79
8f
8ff
8r
8a[
=80
8a]
4b-
8b[
=81
8b]
8cc
8r
8ff
=82
16ee
16gg
16bb-
16gg
16ee
16cc
16b-
16g
=83
8f
8aa
8r
8b-[
=84
8b-]
4cc
8cc#[
=85
8cc#]
8dd
8r
8gg
=86
16ff#
16aa
16ccc
16aa
16ff#
16ee-
16cc
16a
=87
16b-
16dd
16ff#
16gg
16bb-
16gg
16dd
16b-
=88
16a
16cc
16ee-
16cc
16b-
16a
16g
16f#
=89
16g
16b-
16dd
16cc
16b-
16a
16g
16f#
=90
16g
16a
16b-
16g
16f
16e-
16d
16c#
=91
8d
8a
8a
8b-
=92
8cc
4.r
=93
8r
8cc
8cc
8dd
=94
8ee-
4.r
=95
4.r
8ee-
=96
8ee-
8ee-
8ee-
8ee-
=97
4ee-
8r
8ee-
=98
8ee-
8ee-
8ee-
8ee-
=99
4ee-
8r
8ee-
=100
4ee-
8r
8ee-
=101
8ee-
8r
8ee-
8r
=102
8ee-
8r
8ee-
8r
=103
2ee-
=104
2dd-[
=105
2dd-]
=106
2cc
=107
2b-[
=108
2b-]
=109
2a-
=110
2a-[
=111
4a-]
8g
8b
=112
8cc
8b
8cc
8b
=113
4cc
8r
8a-
=114
8g
8a-
8g
8a-
=115
4g
8r
16b-
16e
=116
8f
16cc
16e
8f
16dd
16e
=117
8f
16ee
16cc
8ff
8cc[
=118
8cc]
8b
8b-
8a
=119
16g
16f
16g
16a
8g
8dd[
=120
8dd]
4cc
8b-
=121
16a
16g
16a
16b-
8a
8ee-[
=122
8ee-]
4dd
8cc
=123
16b-
16a
16b-
16cc
8b-
8gg[
=124
8gg]
4ee-
8cc#
=125
16dd
16cc#
16dd
16cc#
8dd
8r
=126
2r
=127
2r
=128
2r
=129
4.r
8ff
=130
16aa
16gg
16ff
16gg
16bb-
16aa
16gg
16aa
=131
16bb-
16aa
16bb-
16ccc
8bb-
8aa-
=132
16gg
16ff#
16gg
16aa-
8gg
8ff
=133
16ee-
16dd
16ee-
16ff
8ee-
8cc
=134
16dd
16cc
16dd
16ee-
8dd
8b-
=135
16a
16g
16f
16e
16f
16g
16a
16b-
=136
16cc
16b-
16a
16g
16a
16b-
16cc
16dd
=137
8ee-
16ee-
16a
8ee-
16ee-
16a
=138
8ee-
16ee-
16a
8ee-
16ee-
16a
=139
8b-
16ff
16a
8b-
16gg
16a
=140
8b-
16aa
16ff
8bb-
8ff[
=141
8ff]
8ee
8ee-
8dd
=142
16cc
16b-
16cc
16dd
8cc
16ee-
16a
=143
8b-
16ff
16a
8b-
16gg
16a
=144
8b-
16aa
16ff
8bb-
8ddd[
=145
8ddd]
4bb-
8ff#[
=146
8ff#]
4gg
16ee-
16cc
=147
8b-
8b-
16cc
16b-
16cc
16dd
=148
4b-
8r
16c
16A
=149
8B-
8d
8f
8f
=150
8.f
16g
8e-
16ee-
16cc
=151
16b-
16a
16cc
16a
16g
16f
16cc
16e-
=152
16d
16f
16b-
16dd
8ff
16c
16A
=153
8B-
8d
8f
8f
=154
8.f
16g
8e-
16gg
16ff
=155
16ee-
16dd
16cc
16b-
16a
16g
16f
16e-
=156
16d
16f
16b-
16dd
8ff
16aa-
16gg
=157
16ff
16ee-
16dd
16cc
16b
16a-
16g
16f
=158
16e-
16g
16cc
16ee-
8gg
8gg
=159
16gg
16ff
16ccc
16bb-
16aa
16gg
16ff
16ee-
=160
16dd
16ff
16bb-
16ddd
16ccc
16bb-
16ddd
16ccc
=161
16bb-
16aa
16gg
16ff
16ee
16dd
16cc
16b-
=162
8a
8cc
8cc
8dd
=163
8ee-
4.r
=164
8r
8a
8a
8b-
=165
8cc
8cc
8cc
8dd
=166
4ee-
8r
8ee-
=167
8ee-
8ee-
8ee-
8ee-
=168
4ee-
8r
8ee-
=169
8ee-
8ee-
8ee-
8ee-
=170
4ee-
8r
8ee-
=171
4ee-
8r
8ee-
=172
8ee-
8r
8ee-
8r
=173
8ee-
8r
8ee-
8r
=174
2ee-
=175
2dd[
=176
2dd]
=177
2dd-[
=178
2dd-]
=179
2cc[
=180
2cc]
=181
2b-
=182
8a
16ee-
16cc
16ee-
16cc
16dd
16b-
=183
16cc
16a
16b-
16g
16a
16f
16g
16e
=184
8f
16ee-
16cc
16ee-
16cc
16dd
16b-
=185
16cc
16a
16b-
16g
16a
16f
16g
16e
=186
8f
16gg
16ee-
16gg
16ee-
16ff
16dd
=187
16ee-
16cc
16dd
16b-
16cc
16a
16b-
16g
=188
8f
8gg
8gg
8gg
=189
8gg
8gg
8gg
8gg
=190
16gg
16ff
16ee
16ff
16ee
16ff
16ee
16ff
=191
8ccc
4r
16ccc
16aa
=192
8eee-
4r
16eee-
16ccc
=193
8aa
4r
16ccc
16aa
=194
4ee-
4r
=195
2r
=196
4.dd
8ee-
=197
8cc
16gg
16ff
8ff
8ff
=198
8.ff
16bb-
8ff
16ee-
16dd
=199
8cc
16gg
16ff
8ff
8ff
=200
8.ff
16bb-
8ff
8ee
=201
16ff
16gg
16aa
16bb-
8ff
8dd
=202
8ee-
8cc
8dd
8cc
=203
8b-
8b-
8a
8a
=204
16b-
16f
16d
16f
16b-
16dd
16cc
16a
=205
16dd
16b-
16ee-
16cc
8ff
8ddd[
=206
8ddd]
4bb-
8ff#[
=207
8ff#]
4gg
16ee-
16cc
=208
4.b-
16dd
16cc
=209
16b-
16f
16d
16f
16b-
16dd
16cc
16a
=210
16dd
16b-
16ee-
16cc
8ff
8ddd[
=211
8ddd]
4bb-
8ff[
=212
8ff]
8ff#
8gg
8eee-[
=213
8eee-]
4ccc
8gg[
=214
8gg]
8gg#
8aa
8fff[
=215
8fff]
4ddd
8aa
=216
8bb-
4eee-
8ddd
=217
8r
4ccc
8bb-
=218
8r
4aa
8gg
=219
8r
4ff
8ee
=220
2ee-
=221
2dd
=222
16r
16g
16cc
16b
16dd
16cc
16ee-
16dd
=223
16ff
16ee-
16gg
16ff#
16aa
16gg
16aa
16bb-
=224
4.b-
16dd
16cc
=225
4b-
8r
16ee-
16a
=226
8b-
16ff
16a
8b-
16gg
16a
=227
8b-
16aa
16ff
8bb-
8ff[
=228
8ff]
8ee
8ee-
8dd
=229
16cc
16b-
16cc
16dd
8cc
16ee-
16a
=230
8b-
16ff
16a
8b-
16gg
16a
=231
8b-
16aa
16ff
8bb-
8ddd[
=232
8ddd]
4bb-
8ff#[
=233
8ff#]
4gg
16ee-
16cc
=234
8b-
8b-
16cc
16b-
16cc
16dd
=235
8b-
4r
16ee-
16a
=236
8b-
4r
16ff
16a
=237
8b-
4.r
=238
4.gg
8a
=239
4b-
4r
=240
4.eee-
16ccc
16aa
=241
8bb-
4ddd
8ccc
=242
8bb-
4ff
8ee-
=243
8dd
4.r
=244
8r
16b-
16dd
8ff
16f
16a
=245
8b-
4.r
==
*-
